assets/icons/24px/stroke/target-24px.svg

<svg width="24" height="24" viewBox="0 0 24 24" fill="none" xmlns="http://www.w3.org/2000/svg">
<path fill-rule="evenodd" clip-rule="evenodd" d="M12 6.5C8.96243 6.5 6.5 8.96243 6.5 12C6.5 15.0376 8.96243 17.5 12 17.5C15.0376 17.5 17.5 15.0376 17.5 12C17.5 8.96243 15.0376 6.5 12 6.5ZM4.5 12C4.5 7.85786 7.85786 4.5 12 4.5C16.1421 4.5 19.5 7.85786 19.5 12C19.5 16.1421 16.1421 19.5 12 19.5C7.85786 19.5 4.5 16.1421 4.5 12Z" fill="white"/>
<path fill-rule="evenodd" clip-rule="evenodd" d="M12 2C12.5523 2 13 2.44772 13 3V8C13 8.55228 12.5523 9 12 9C11.4477 9 11 8.55228 11 8V3C11 2.44772 11.4477 2 12 2ZM2 12C2 11.4477 2.44772 11 3 11H8C8.55228 11 9 11.4477 9 12C9 12.5523 8.55228 13 8 13H3C2.44772 13 2 12.5523 2 12ZM15 12C15 11.4477 15.4477 11 16 11H21C21.5523 11 22 11.4477 22 12C22 12.5523 21.5523 13 21 13H16C15.4477 13 15 12.5523 15 12ZM12 15C12.5523 15 13 15.4477 13 16V21C13 21.5523 12.5523 22 12 22C11.4477 22 11 21.5523 11 21V16C11 15.4477 11.4477 15 12 15Z" fill="white"/>
</svg>

<svg width="24" height="24" fill="none" xmlns="http://www.w3.org/2000/svg"><path fill-rule="evenodd" clip-rule="evenodd" d="M12 6.5a5.5 5.5 0 1 0 0 11 5.5 5.5 0 0 0 0-11zM4.5 12a7.5 7.5 0 1 1 15 0 7.5 7.5 0 0 1-15 0z" fill="#fff"/><path fill-rule="evenodd" clip-rule="evenodd" d="M12 2a1 1 0 0 1 1 1v5a1 1 0 1 1-2 0V3a1 1 0 0 1 1-1zM2 12a1 1 0 0 1 1-1h5a1 1 0 1 1 0 2H3a1 1 0 0 1-1-1zm13 0a1 1 0 0 1 1-1h5a1 1 0 1 1 0 2h-5a1 1 0 0 1-1-1zm-3 3a1 1 0 0 1 1 1v5a1 1 0 1 1-2 0v-5a1 1 0 0 1 1-1z" fill="#fff"/></svg>
